X:802
T:Reel 802
M:4/4
K:Dmin
L:1/8
AG|FDA,D FDAD|ECCA, ECCB,|A,DDE FGAd||c=B (3AAc A2ED:||2cAcA GEC2|EF|Add=B cedc|AFdF ECC2|DFAd cded|cAGE FDDz|dcAd c2ce|dfed cAAc|c=BcA GEEC|DFED  (3EFG DC|
